; generated by Slic3r 1.2.9 on 2017-08-02 at 20:44:26

; external perimeters extrusion width = 0.20mm
; perimeters extrusion width = 0.21mm
; infill extrusion width = 0.21mm
; solid infill extrusion width = 0.21mm
; top infill extrusion width = 0.21mm

M107
M190 S45 ; set bed temperature
M104 S225 ; set temperature
G28 ; home all axes
G1 Z5 F5000 ; lift nozzle

M109 S225 ; wait for temperature to be reached
G21 ; set units to millimeters
G90 ; use absolute coordinates
M82 ; use absolute distances for extrusion
G92 E0
G1 Z0.200 F7800.000
G1 E-2.00000 F2400.00000
G92 E0
G1 X103.751 Y96.694 F7800.000
G1 E2.00000 F2400.00000
G1 X105.493 Y95.277 E2.06669 F1800.000
G1 X108.570 Y94.483 E2.16103
G1 X118.070 Y94.483 E2.44310
G1 X120.281 Y94.880 E2.50979
G1 X122.216 Y96.021 E2.57649 F1800.000
G1 X123.633 Y97.763 E2.64318
G1 X124.427 Y100.840 E2.73752
G1 X124.427 Y110.340 E3.01959
G1 X124.030 Y112.551 E3.08628
G1 X122.889 Y114.486 E3.15298
G1 X121.147 Y115.903 E3.21967
G1 X118.070 Y116.697 E3.31401
G1 X108.570 Y116.697 E3.59608
G1 X106.359 Y116.300 E3.66277
G1 X104.424 Y115.159 E3.72947
G1 X103.007 Y113.417 E3.79616
G1 X102.213 Y110.340 E3.89050
G1 X102.213 Y100.840 E4.17257
G1 X102.610 Y98.629 E4.23926
G1 X103.736 Y96.720 E4.30506
G1 E2.30506 F2400.00000
G92 E0
G1 X117.156 Y109.426 F7800.000
G1 E2.00000 F2400.00000
G1 X109.484 Y109.426 E2.22778 F1800.000
G1 X109.484 Y101.754 E2.45556
G1 X117.156 Y101.754 E2.68335
G1 X117.156 Y109.396 E2.91024
G1 X117.513 Y109.783 F7800.000
G1 X109.127 Y109.783 E3.15922 F1800.000
G1 X109.127 Y101.397 E3.40821
G1 X117.513 Y101.397 E3.65720
G1 X117.513 Y109.753 E3.90529
G1 X117.870 Y110.140 F7800.000
G1 X108.770 Y110.140 E4.17548 F1800.000
G1 X108.770 Y101.040 E4.44568
G1 X117.870 Y101.040 E4.71587
G1 X117.870 Y110.110 E4.98517
G1 X117.697 Y110.040 F7800.000
G1 X116.948 Y102.153 F7800.000
G1 X116.757 Y101.962 E4.99350 F1800.000
G1 X116.233 Y101.962 E5.00960
G1 X116.948 Y102.677 E5.04070
G1 X116.948 Y103.200 E5.05681
G1 X115.710 Y101.962 E5.11068
G1 X115.187 Y101.962 E5.12678
G1 X116.948 Y103.723 E5.20343
G1 X116.948 Y104.247 E5.21953
G1 X114.663 Y101.962 E5.31895
G1 X114.140 Y101.962 E5.33505
G1 X116.948 Y104.770 E5.45724
G1 X116.948 Y105.293 E5.47334
G1 X113.617 Y101.962 E5.61830
G1 X113.093 Y101.962 E5.63440
G1 X116.948 Y105.817 E5.80213
G1 X116.948 Y106.340 E5.81823
G1 X112.570 Y101.962 E6.00873
G1 X112.047 Y101.962 E6.02484
G1 X116.948 Y106.863 E6.23811
G1 X116.948 Y107.387 E6.25421
G1 X111.523 Y101.962 E6.49025
G1 X111.000 Y101.962 E6.50635
G1 X116.948 Y107.910 E6.76517
G1 X116.948 Y108.433 E6.78127
G1 X110.477 Y101.962 E7.06286
G1 X109.954 Y101.962 E7.07896
G1 X116.948 Y108.956 E7.38332
G1 X116.686 Y109.218 E7.39470
G1 X109.692 Y102.224 E7.69906
G1 X109.692 Y102.747 E7.71516
G1 X116.163 Y109.218 E7.99674
G1 X115.640 Y109.218 E8.01285
G1 X109.692 Y103.270 E8.27166
G1 X109.692 Y103.794 E8.28776
G1 X115.116 Y109.218 E8.52380
G1 X114.593 Y109.218 E8.53991
G1 X109.692 Y104.317 E8.75318
G1 X109.692 Y104.840 E8.76928
G1 X114.070 Y109.218 E8.95978
G1 X113.547 Y109.218 E8.97588
G1 X109.692 Y105.363 E9.14361
G1 X109.692 Y105.887 E9.15971
G1 X113.023 Y109.218 E9.30467
G1 X112.500 Y109.218 E9.32077
G1 X109.692 Y106.410 E9.44296
G1 X109.692 Y106.933 E9.45906
G1 X111.977 Y109.218 E9.55848
G1 X111.453 Y109.218 E9.57458
G1 X109.692 Y107.457 E9.65122
G1 X109.692 Y107.980 E9.66733
G1 X110.930 Y109.218 E9.72120
G1 X110.407 Y109.218 E9.73730
G1 X109.692 Y108.503 E9.76840
G1 X109.692 Y109.027 E9.78451
G1 X109.883 Y109.218 E9.79284
M104 S220 ; set temperature
M140 S40 ; wait for bed temperature to be reached
G1 Z0.400 F7800.000
G1 X117.641 Y109.911 F7800.000
G1 X108.999 Y109.911 E9.91289 F900.000
G1 X108.999 Y101.269 E10.03295
G1 X117.641 Y101.269 E10.15301
G1 X117.641 Y109.881 E10.27265
G1 X117.808 Y110.078 F7800.000
G1 X108.832 Y110.078 E10.39735 F900.000
G1 X108.832 Y101.102 E10.52204
G1 X117.808 Y101.102 E10.64674
G1 X117.808 Y110.048 E10.77103
G1 X117.970 Y110.240 F7800.000
G1 X108.670 Y110.240 E10.89249 F900.000
G1 X108.670 Y100.940 E11.01396
G1 X117.970 Y100.940 E11.13543
G1 X117.970 Y110.210 E11.25651
G1 X117.797 Y110.140 F7800.000
G1 X117.443 Y109.824 F7800.000
G1 X117.554 Y109.713 E11.25871 F1200.000
G1 X117.554 Y109.475 E11.26207
G1 X117.205 Y109.824 E11.26901
G1 X116.966 Y109.824 E11.27236
G1 X117.554 Y109.236 E11.28405
G1 X117.554 Y108.997 E11.28740
G1 X116.727 Y109.824 E11.30382
G1 X116.488 Y109.824 E11.30718
G1 X117.554 Y108.758 E11.32834
G1 X117.554 Y108.519 E11.33170
G1 X116.249 Y109.824 E11.35761
G1 X116.011 Y109.824 E11.36096
G1 X117.554 Y108.281 E11.39161
G1 X117.554 Y108.042 E11.39496
G1 X115.772 Y109.824 E11.43035
G1 X115.533 Y109.824 E11.43370
G1 X117.554 Y107.803 E11.47384
G1 X117.554 Y107.564 E11.47719
G1 X115.294 Y109.824 E11.52206
G1 X115.055 Y109.824 E11.52542
G1 X117.554 Y107.325 E11.57503
G1 X117.554 Y107.087 E11.57838
G1 X114.817 Y109.824 E11.63274
G1 X114.578 Y109.824 E11.63609
G1 X117.554 Y106.848 E11.69519
G1 X117.554 Y106.609 E11.69854
G1 X114.339 Y109.824 E11.76238
G1 X114.100 Y109.824 E11.76574
G1 X117.554 Y106.370 E11.83432
G1 X117.554 Y106.132 E11.83767
G1 X113.862 Y109.824 E11.91099
G1 X113.623 Y109.824 E11.91435
G1 X117.554 Y105.893 E11.99241
G1 X117.554 Y105.654 E11.99576
G1 X113.384 Y109.824 E12.07857
G1 X113.145 Y109.824 E12.08192
G1 X117.554 Y105.415 E12.16947
G1 X117.554 Y105.176 E12.17282
G1 X112.906 Y109.824 E12.26511
G1 X112.668 Y109.824 E12.26846
G1 X117.554 Y104.938 E12.36549
G1 X117.554 Y104.699 E12.36884
G1 X112.429 Y109.824 E12.47061
G1 X112.190 Y109.824 E12.47396
G1 X117.554 Y104.460 E12.58048
G1 X117.554 Y104.221 E12.58383
G1 X111.951 Y109.824 E12.69508
G1 X111.712 Y109.824 E12.69843
G1 X117.554 Y103.982 E12.81443
G1 X117.554 Y103.744 E12.81778
G1 X111.474 Y109.824 E12.93852
G1 X111.235 Y109.824 E12.94187
G1 X117.554 Y103.505 E13.06735
G1 X117.554 Y103.266 E13.07070
G1 X110.996 Y109.824 E13.20092
G1 X110.757 Y109.824 E13.20427
G1 X117.554 Y103.027 E13.33923
G1 X117.554 Y102.788 E13.34258
G1 X110.518 Y109.824 E13.48228
G1 X110.280 Y109.824 E13.48564
G1 X117.554 Y102.550 E13.63008
G1 X117.554 Y102.311 E13.63343
G1 X110.041 Y109.824 E13.78262
G1 X109.802 Y109.824 E13.78597
G1 X117.554 Y102.072 E13.93989
G1 X117.554 Y101.833 E13.94325
G1 X109.563 Y109.824 E14.10191
G1 X109.324 Y109.824 E14.10527
G1 X117.554 Y101.594 E14.26868
G1 X117.534 Y101.376 E14.27176
G1 X109.106 Y109.804 E14.43911
G1 X109.086 Y109.585 E14.44220
G1 X117.315 Y101.356 E14.60561
G1 X117.077 Y101.356 E14.60896
G1 X109.086 Y109.347 E14.76762
G1 X109.086 Y109.108 E14.77098
G1 X116.838 Y101.356 E14.92490
G1 X116.599 Y101.356 E14.92825
G1 X109.086 Y108.869 E15.07744
G1 X109.086 Y108.630 E15.08079
G1 X116.360 Y101.356 E15.22523
G1 X116.122 Y101.356 E15.22858
G1 X109.086 Y108.392 E15.36828
G1 X109.086 Y108.153 E15.37164
G1 X115.883 Y101.356 E15.50659
G1 X115.644 Y101.356 E15.50995
G1 X109.086 Y107.914 E15.64016
G1 X109.086 Y107.675 E15.64352
G1 X115.405 Y101.356 E15.76899
G1 X115.166 Y101.356 E15.77235
G1 X109.086 Y107.436 E15.89308
G1 X109.086 Y107.198 E15.89643
G1 X114.928 Y101.356 E16.01243
G1 X114.689 Y101.356 E16.01578
G1 X109.086 Y106.959 E16.12703
G1 X109.086 Y106.720 E16.13038
G1 X114.450 Y101.356 E16.23689
G1 X114.211 Y101.356 E16.24025
G1 X109.086 Y106.481 E16.34202
G1 X109.086 Y106.242 E16.34537
G1 X113.972 Y101.356 E16.44240
G1 X113.734 Y101.356 E16.44575
G1 X109.086 Y106.004 E16.53804
G1 X109.086 Y105.765 E16.54139
G1 X113.495 Y101.356 E16.62893
G1 X113.256 Y101.356 E16.63229
G1 X109.086 Y105.526 E16.71509
G1 X109.086 Y105.287 E16.71844
G1 X113.017 Y101.356 E16.79650
G1 X112.778 Y101.356 E16.79986
G1 X109.086 Y105.048 E16.87318
G1 X109.086 Y104.810 E16.87653
G1 X112.540 Y101.356 E16.94511
G1 X112.301 Y101.356 E16.94846
G1 X109.086 Y104.571 E17.01230
G1 X109.086 Y104.332 E17.01565
G1 X112.062 Y101.356 E17.07475
G1 X111.823 Y101.356 E17.07810
G1 X109.086 Y104.093 E17.13246
G1 X109.086 Y103.854 E17.13581
G1 X111.584 Y101.356 E17.18543
G1 X111.346 Y101.356 E17.18878
G1 X109.086 Y103.616 E17.23365
G1 X109.086 Y103.377 E17.23700
G1 X111.107 Y101.356 E17.27714
G1 X110.868 Y101.356 E17.28049
G1 X109.086 Y103.138 E17.31588
G1 X109.086 Y102.899 E17.31923
G1 X110.629 Y101.356 E17.34988
G1 X110.390 Y101.356 E17.35323
G1 X109.086 Y102.660 E17.37914
G1 X109.086 Y102.422 E17.38249
G1 X110.152 Y101.356 E17.40366
G1 X109.913 Y101.356 E17.40701
G1 X109.086 Y102.183 E17.42343
G1 X109.086 Y101.944 E17.42679
G1 X109.674 Y101.356 E17.43847
G1 X109.435 Y101.356 E17.44182
G1 X109.086 Y101.705 E17.44877
G1 X109.086 Y101.467 E17.45212
G1 X109.197 Y101.356 E17.45432
G1 Z0.600 F7800.000
G1 X117.641 Y109.911 F7800.000
G1 X108.999 Y109.911 E17.57437 F900.000
G1 X108.999 Y101.269 E17.69443
G1 X117.641 Y101.269 E17.81449
G1 X117.641 Y109.881 E17.93413
G1 X117.808 Y110.078 F7800.000
G1 X108.832 Y110.078 E18.05883 F900.000
G1 X108.832 Y101.102 E18.18353
G1 X117.808 Y101.102 E18.30822
G1 X117.808 Y110.048 E18.43251
G1 X117.970 Y110.240 F7800.000
G1 X108.670 Y110.240 E18.55398 F900.000
G1 X108.670 Y100.940 E18.67545
G1 X117.970 Y100.940 E18.79691
G1 X117.970 Y110.210 E18.91799
G1 X117.797 Y110.140 F7800.000
G1 X117.554 Y101.467 F7800.000
G1 X117.443 Y101.356 E18.92019 F1200.000
G1 X117.205 Y101.356 E18.92355
G1 X117.554 Y101.705 E18.93049
G1 X117.554 Y101.944 E18.93384
G1 X116.966 Y101.356 E18.94553
G1 X116.727 Y101.356 E18.94888
G1 X117.554 Y102.183 E18.96531
G1 X117.554 Y102.422 E18.96866
G1 X116.488 Y101.356 E18.98983
G1 X116.249 Y101.356 E18.99318
G1 X117.554 Y102.661 E19.01909
G1 X117.554 Y102.899 E19.02244
G1 X116.011 Y101.356 E19.05309
G1 X115.772 Y101.356 E19.05644
G1 X117.554 Y103.138 E19.09183
G1 X117.554 Y103.377 E19.09519
G1 X115.533 Y101.356 E19.13532
G1 X115.294 Y101.356 E19.13867
G1 X117.554 Y103.616 E19.18354
G1 X117.554 Y103.855 E19.18690
G1 X115.055 Y101.356 E19.23651
G1 X114.817 Y101.356 E19.23987
G1 X117.554 Y104.093 E19.29422
G1 X117.554 Y104.332 E19.29758
G1 X114.578 Y101.356 E19.35667
G1 X114.339 Y101.356 E19.36003
G1 X117.554 Y104.571 E19.42387
G1 X117.554 Y104.810 E19.42722
G1 X114.100 Y101.356 E19.49580
G1 X113.862 Y101.356 E19.49915
G1 X117.554 Y105.048 E19.57247
G1 X117.554 Y105.287 E19.57583
G1 X113.623 Y101.356 E19.65389
G1 X113.384 Y101.356 E19.65724
G1 X117.554 Y105.526 E19.74005
G1 X117.554 Y105.765 E19.74340
G1 X113.145 Y101.356 E19.83095
G1 X112.906 Y101.356 E19.83430
G1 X117.554 Y106.004 E19.92659
G1 X117.554 Y106.242 E19.92994
G1 X112.668 Y101.356 E20.02697
G1 X112.429 Y101.356 E20.03032
G1 X117.554 Y106.481 E20.13209
G1 X117.554 Y106.720 E20.13544
G1 X112.190 Y101.356 E20.24196
G1 X111.951 Y101.356 E20.24531
G1 X117.554 Y106.959 E20.35656
G1 X117.554 Y107.198 E20.35991
G1 X111.712 Y101.356 E20.47591
G1 X111.474 Y101.356 E20.47926
G1 X117.554 Y107.436 E20.60000
G1 X117.554 Y107.675 E20.60335
G1 X111.235 Y101.356 E20.72883
G1 X110.996 Y101.356 E20.73218
G1 X117.554 Y107.914 E20.86240
G1 X117.554 Y108.153 E20.86575
G1 X110.757 Y101.356 E21.00071
G1 X110.518 Y101.356 E21.00406
G1 X117.554 Y108.392 E21.14377
G1 X117.554 Y108.630 E21.14712
G1 X110.280 Y101.356 E21.29156
G1 X110.041 Y101.356 E21.29491
G1 X117.554 Y108.869 E21.44410
G1 X117.554 Y109.108 E21.44745
G1 X109.802 Y101.356 E21.60138
G1 X109.563 Y101.356 E21.60473
G1 X117.554 Y109.347 E21.76340
G1 X117.554 Y109.586 E21.76675
G1 X109.324 Y101.356 E21.93016
G1 X109.106 Y101.376 E21.93324
G1 X117.534 Y109.804 E22.10060
G1 X117.315 Y109.824 E22.10368
G1 X109.086 Y101.595 E22.26709
G1 X109.086 Y101.833 E22.27044
G1 X117.077 Y109.824 E22.42911
G1 X116.838 Y109.824 E22.43246
G1 X109.086 Y102.072 E22.58638
G1 X109.086 Y102.311 E22.58973
G1 X116.599 Y109.824 E22.73892
G1 X116.360 Y109.824 E22.74227
G1 X109.086 Y102.550 E22.88671
G1 X109.086 Y102.788 E22.89006
G1 X116.122 Y109.824 E23.02976
G1 X115.883 Y109.824 E23.03312
G1 X109.086 Y103.027 E23.16808
G1 X109.086 Y103.266 E23.17143
G1 X115.644 Y109.824 E23.30165
G1 X115.405 Y109.824 E23.30500
G1 X109.086 Y103.505 E23.43047
G1 X109.086 Y103.744 E23.43383
G1 X115.166 Y109.824 E23.55456
G1 X114.928 Y109.824 E23.55791
G1 X109.086 Y103.982 E23.67391
G1 X109.086 Y104.221 E23.67726
G1 X114.689 Y109.824 E23.78851
G1 X114.450 Y109.824 E23.79186
G1 X109.086 Y104.460 E23.89838
G1 X109.086 Y104.699 E23.90173
G1 X114.211 Y109.824 E24.00350
G1 X113.972 Y109.824 E24.00685
G1 X109.086 Y104.938 E24.10388
G1 X109.086 Y105.176 E24.10723
G1 X113.734 Y109.824 E24.19952
G1 X113.495 Y109.824 E24.20287
G1 X109.086 Y105.415 E24.29041
G1 X109.086 Y105.654 E24.29377
G1 X113.256 Y109.824 E24.37657
G1 X113.017 Y109.824 E24.37992
G1 X109.086 Y105.893 E24.45799
G1 X109.086 Y106.132 E24.46134
G1 X112.778 Y109.824 E24.53466
G1 X112.540 Y109.824 E24.53801
G1 X109.086 Y106.370 E24.60659
G1 X109.086 Y106.609 E24.60994
G1 X112.301 Y109.824 E24.67378
G1 X112.062 Y109.824 E24.67714
G1 X109.086 Y106.848 E24.73623
G1 X109.086 Y107.087 E24.73958
G1 X111.823 Y109.824 E24.79394
G1 X111.584 Y109.824 E24.79729
G1 X109.086 Y107.326 E24.84691
G1 X109.086 Y107.564 E24.85026
G1 X111.346 Y109.824 E24.89513
G1 X111.107 Y109.824 E24.89848
G1 X109.086 Y107.803 E24.93862
G1 X109.086 Y108.042 E24.94197
G1 X110.868 Y109.824 E24.97736
G1 X110.629 Y109.824 E24.98071
G1 X109.086 Y108.281 E25.01136
G1 X109.086 Y108.520 E25.01471
G1 X110.390 Y109.824 E25.04062
G1 X110.152 Y109.824 E25.04397
G1 X109.086 Y108.758 E25.06514
G1 X109.086 Y108.997 E25.06849
G1 X109.913 Y109.824 E25.08492
G1 X109.674 Y109.824 E25.08827
G1 X109.086 Y109.236 E25.09995
G1 X109.086 Y109.475 E25.10330
G1 X109.435 Y109.824 E25.11025
G1 X109.197 Y109.824 E25.11360
G1 X109.086 Y109.713 E25.11580
M106 S234.6
G1 Z0.800 F7800.000
G1 X117.641 Y109.911 F7800.000
G1 X108.999 Y109.911 E25.23586 F900.000
G1 X108.999 Y101.269 E25.35591
G1 X117.641 Y101.269 E25.47597
G1 X117.641 Y109.881 E25.59561
G1 X117.808 Y110.078 F7800.000
G1 X108.832 Y110.078 E25.72031 F900.000
G1 X108.832 Y101.102 E25.84501
G1 X117.808 Y101.102 E25.96971
G1 X117.808 Y110.048 E26.09399
G1 X117.970 Y110.240 F7800.000
G1 X108.670 Y110.240 E26.21546 F900.000
G1 X108.670 Y100.940 E26.33693
G1 X117.970 Y100.940 E26.45840
G1 X117.970 Y110.210 E26.57947
G1 X117.797 Y110.140 F7800.000
G1 X117.499 Y109.551 F7800.000
G1 X117.499 Y109.314 E26.58276 F4800.000
G1 X117.355 Y109.458 E26.58558
G1 X117.271 Y109.436 E26.58678
G1 X117.005 Y109.701 E26.59201
G1 X117.024 Y109.769 E26.59298
G1 X117.387 Y109.769 E26.59802
G1 X117.496 Y109.660 E26.60016
G1 X117.473 Y109.576 E26.60137
G1 X117.499 Y109.551 E26.60187
G1 X117.499 Y108.972 F7800.000
G1 X117.499 Y108.523 E26.60810 F4800.000
G1 X117.256 Y108.766 E26.61287
G1 X117.279 Y108.850 E26.61407
G1 X117.013 Y109.116 E26.61930
G1 X116.929 Y109.093 E26.62050
G1 X116.663 Y109.359 E26.62573
G1 X116.685 Y109.443 E26.62693
G1 X116.420 Y109.709 E26.63216
G1 X116.336 Y109.686 E26.63336
G1 X116.253 Y109.769 E26.63498
G1 X116.596 Y109.769 E26.63974
G1 X116.804 Y109.561 E26.64383
G1 X116.887 Y109.583 E26.64503
G1 X117.153 Y109.317 E26.65025
G1 X117.131 Y109.234 E26.65146
G1 X117.397 Y108.968 E26.65668
G1 X117.480 Y108.990 E26.65789
G1 X117.499 Y108.972 E26.65825
G1 X117.499 Y108.181 F7800.000
G1 X117.499 Y107.945 E26.66153 F4800.000
G1 X117.263 Y108.180 E26.66616
G1 X117.180 Y108.158 E26.66736
G1 X116.914 Y108.423 E26.67259
G1 X116.936 Y108.507 E26.67379
G1 X116.670 Y108.773 E26.67901
G1 X116.587 Y108.751 E26.68022
G1 X116.321 Y109.017 E26.68544
G1 X116.343 Y109.100 E26.68665
G1 X116.077 Y109.366 E26.69187
G1 X115.993 Y109.344 E26.69308
G1 X115.727 Y109.610 E26.69830
G1 X115.750 Y109.693 E26.69951
G1 X115.675 Y109.769 E26.70099
G1 X116.017 Y109.769 E26.70574
G1 X116.218 Y109.568 E26.70969
G1 X116.195 Y109.484 E26.71089
G1 X116.461 Y109.218 E26.71612
G1 X116.545 Y109.241 E26.71732
G1 X116.811 Y108.975 E26.72254
G1 X116.788 Y108.891 E26.72375
G1 X117.054 Y108.625 E26.72897
G1 X117.138 Y108.648 E26.73018
G1 X117.404 Y108.382 E26.73540
G1 X117.382 Y108.298 E26.73661
G1 X117.499 Y108.181 E26.73891
G1 X117.499 Y107.240 F7800.000
G1 X117.430 Y107.222 E26.73990 F4800.000
G1 X117.164 Y107.488 E26.74512
G1 X117.187 Y107.572 E26.74633
G1 X116.921 Y107.838 E26.75155
